X: 1
T: Drake's Neck, The
M: 4/4
L: 1/8
R: reel
K: Dmaj
| AGFE E2FD | DGEF {E}FAdB | AGFE E2FD | DGBe cAdB |
AGFE E2FD | DGEF {E}FAdB |AGFA EGFD |DABe cAdA |
FABe edef | ed (3Bcd efge | fdBd efgf | edAB BcdA |
FABe edef | ed (3Bcd efge | fgaf (3gfe fd | eBcg  ecdB ||
